usr/share/icons/biglinux-icons-material-dark/16/actions/path-union.svg

<svg xmlns="http://www.w3.org/2000/svg" viewBox="0 0 16 16">
<defs id="defs3051">
<style id="current-color-scheme" type="text/css">
.ColorScheme-Text{color:#dedede}
</style>
</defs>
<path d="M9.5 2a4.5 4.5 0 0 0-4.467 4H2v8h8v-3.031A4.5 4.5 0 0 0 14 6.5 4.5 4.5 0 0 0 9.5 2m0 1A3.5 3.5 0 0 1 13 6.5 3.5 3.5 0 0 1 9.5 10 3.5 3.5 0 0 1 6 6.5 3.5 3.5 0 0 1 9.5 3M3 7h2.031A4.5 4.5 0 0 0 9 10.967V13H3z" class="ColorScheme-Text" style="fill:currentColor;fill-opacity:1;stroke:none"/>
<path d="M9.5 3A3.5 3.5 0 0 0 6 6.5a3.5 3.5 0 0 0 .04.5H3v6h6V9.959a3.5 3.5 0 0 0 .5.041A3.5 3.5 0 0 0 13 6.5 3.5 3.5 0 0 0 9.5 3" class="ColorScheme-Text" style="fill:currentColor;fill-opacity:.5;stroke:none"/>
</svg>

<svg xmlns="http://www.w3.org/2000/svg" viewBox="0 0 16 16">
  <defs id="defs3051">
    <style type="text/css" id="current-color-scheme">
      .ColorScheme-Text {
        color:#dedede;
      }
      </style>
  </defs>
 <path 
     style="fill:currentColor;fill-opacity:1;stroke:none" 
     d="M 9.5 2 A 4.5 4.5 0 0 0 5.0332031 6 L 2 6 L 2 14 L 10 14 L 10 10.96875 A 4.5 4.5 0 0 0 14 6.5 A 4.5 4.5 0 0 0 9.5 2 z M 9.5 3 A 3.5 3.5 0 0 1 13 6.5 A 3.5 3.5 0 0 1 9.5 10 A 3.5 3.5 0 0 1 6 6.5 A 3.5 3.5 0 0 1 9.5 3 z M 3 7 L 5.03125 7 A 4.5 4.5 0 0 0 9 10.966797 L 9 13 L 3 13 L 3 7 z "
     class="ColorScheme-Text"/>
 <path 
     style="fill:currentColor;fill-opacity:0.5;stroke:none" 
     d="M 9.5 3 A 3.5 3.5 0 0 0 6 6.5 A 3.5 3.5 0 0 0 6.0390625 7 L 3 7 L 3 13 L 9 13 L 9 9.9589844 A 3.5 3.5 0 0 0 9.5 10 A 3.5 3.5 0 0 0 13 6.5 A 3.5 3.5 0 0 0 9.5 3 z "
     class="ColorScheme-Text"/>
</svg>
